dist/images/svg/sprite/icon-pay.svg

<svg width="48" height="48" viewBox="0 0 48 48" fill="none" xmlns="http://www.w3.org/2000/svg">
<g clip-path="url(#clip0_22_1364)">
<g clip-path="url(#clip1_22_1364)">
<path d="M14.9647 5.15625H22.4469C22.8353 5.15625 23.15 4.84144 23.15 4.45312C23.15 4.06481 22.8353 3.75 22.4469 3.75H14.9647C14.5763 3.75 14.2616 4.06481 14.2616 4.45312C14.2616 4.84144 14.5763 5.15625 14.9647 5.15625Z" fill="white"/>
<path d="M47.3934 22.5047L47.3933 22.501V21.4599C47.3933 18.4735 44.9636 16.0439 41.9772 16.0439H36.8053V6.42C36.8053 2.88 33.9253 0 30.3853 0H7.02657C3.48657 0 0.606567 2.88 0.606567 6.42V41.58C0.606567 45.12 3.48657 48 7.02657 48H30.3853C33.9253 48 36.8052 45.12 36.8052 41.58V41.2184H41.9772C44.9635 41.2184 47.3933 38.7888 47.3933 35.8024V26.7607L47.3934 26.7571V22.5047ZM45.987 21.4599V21.8016H16.0375V21.4599C16.0375 19.2489 17.8363 17.4502 20.0473 17.4502H41.9773C44.1883 17.4502 45.987 19.2489 45.987 21.4599ZM35.3991 41.58C35.3991 44.3446 33.1499 46.5938 30.3854 46.5938H7.02657C5.68725 46.5938 4.4281 46.0723 3.48122 45.1253C2.53435 44.1784 2.01282 42.9193 2.01282 41.58V6.42C2.01282 5.08069 2.53425 3.82162 3.48122 2.87466C4.42819 1.92769 5.68725 1.40625 7.02657 1.40625H30.3853C33.1498 1.40625 35.399 3.65541 35.399 6.42V16.0439H33.0552V7.71375C33.0552 5.52816 31.2771 3.75 29.0915 3.75H25.9077C25.7212 3.75 25.5424 3.82408 25.4105 3.95594C25.2787 4.0878 25.2046 4.26664 25.2046 4.45312V4.60687C25.2046 6.07809 24.0076 7.275 22.5365 7.275H14.8762C13.4049 7.275 12.208 6.07809 12.208 4.60687V4.45312C12.208 4.26664 12.134 4.0878 12.0021 3.95594C11.8702 3.82408 11.6914 3.75 11.5049 3.75H8.32032C6.13472 3.75 4.35657 5.52816 4.35657 7.71375V9.19125C4.35657 9.57956 4.67129 9.89437 5.05969 9.89437C5.4481 9.89437 5.76282 9.57956 5.76282 9.19125V7.71375C5.76282 6.30356 6.91013 5.15625 8.32032 5.15625H10.8387C11.1077 7.14412 12.8158 8.68125 14.8762 8.68125H22.5365C24.5969 8.68125 26.3049 7.14412 26.5739 5.15625H29.0915C30.5017 5.15625 31.649 6.30356 31.649 7.71375V16.0439H20.0473C17.061 16.0439 14.6313 18.4735 14.6313 21.4599V35.8025C14.6313 38.7889 17.0609 41.2185 20.0473 41.2185H31.4723C31.0972 42.1719 30.1646 42.8438 29.0916 42.8438H8.32032C6.91013 42.8438 5.76282 41.6964 5.76282 40.2863V12.0037C5.76282 11.6154 5.4481 11.3006 5.05969 11.3006C4.67129 11.3006 4.35657 11.6154 4.35657 12.0037V40.2863C4.35657 42.4718 6.13472 44.25 8.32032 44.25H29.0916C30.9407 44.25 32.5206 42.9624 32.9431 41.2184H35.3992V41.58H35.3991ZM41.9773 39.8122H20.0473C17.8363 39.8122 16.0375 38.0134 16.0375 35.8024V27.4603H38.3728C38.7612 27.4603 39.0759 27.1455 39.0759 26.7572C39.0759 26.3689 38.7612 26.0541 38.3728 26.0541H16.0378V23.2078H45.987V26.0541H41.1797C40.7913 26.0541 40.4766 26.3689 40.4766 26.7572C40.4766 27.1455 40.7913 27.4603 41.1797 27.4603H45.987V35.8024C45.987 38.0135 44.1883 39.8122 41.9773 39.8122Z" fill="white"/>
<path d="M19.6163 28.9177H17.9214C17.533 28.9177 17.2183 29.2325 17.2183 29.6208C17.2183 30.0092 17.533 30.324 17.9214 30.324H19.6163C20.0047 30.324 20.3194 30.0092 20.3194 29.6208C20.3194 29.2325 20.0047 28.9177 19.6163 28.9177ZM23.4398 28.9177H21.7449C21.3565 28.9177 21.0418 29.2325 21.0418 29.6208C21.0418 30.0092 21.3565 30.324 21.7449 30.324H23.4398C23.8282 30.324 24.1429 30.0092 24.1429 29.6208C24.1429 29.2325 23.8282 28.9177 23.4398 28.9177ZM27.2634 28.9177H25.5684C25.18 28.9177 24.8653 29.2325 24.8653 29.6208C24.8653 30.0092 25.18 30.324 25.5684 30.324H27.2633C27.6517 30.324 27.9664 30.0092 27.9664 29.6208C27.9664 29.2325 27.6517 28.9177 27.2634 28.9177ZM31.0869 28.9177H29.392C29.0036 28.9177 28.6889 29.2325 28.6889 29.6208C28.6889 30.0092 29.0036 30.324 29.392 30.324H31.0869C31.2734 30.324 31.4522 30.2499 31.5841 30.118C31.716 29.9862 31.79 29.8073 31.79 29.6208C31.79 29.4344 31.716 29.2555 31.5841 29.1237C31.4522 28.9918 31.2734 28.9177 31.0869 28.9177ZM7.86879 19.8304C8.58026 20.2959 9.07882 20.4534 9.68904 20.5017V20.9997C9.68904 21.388 10.0038 21.7028 10.3922 21.7028C10.7806 21.7028 11.0953 21.388 11.0953 20.9997V20.4361C12.3304 20.1365 13.1224 19.0878 13.2964 18.0536C13.5214 16.7149 12.8221 15.5514 11.5147 15.0892C10.7505 14.819 9.90391 14.4918 9.4212 14.1132C9.23398 13.9663 9.15307 13.6586 9.21513 13.3292C9.2636 13.0721 9.41266 12.772 9.68913 12.5943V13.5088C9.68913 13.8971 10.0039 14.2119 10.3923 14.2119C10.7807 14.2119 11.0954 13.8971 11.0954 13.5088V12.4923C11.3739 12.5872 11.5454 12.7218 11.5794 12.7502C11.7231 12.8665 11.9067 12.9215 12.0907 12.9034C12.2746 12.8854 12.4441 12.7956 12.5623 12.6535C12.6805 12.5114 12.7381 12.3285 12.7225 12.1444C12.7069 11.9602 12.6194 11.7896 12.4789 11.6694C12.3469 11.5595 11.8501 11.1832 11.0953 11.042V10.5977C11.0953 10.2093 10.7806 9.89453 10.3922 9.89453C10.0038 9.89453 9.68904 10.2093 9.68904 10.5977V11.0917C9.63391 11.1055 9.57832 11.1205 9.52198 11.1376C8.65554 11.3986 8.00838 12.1386 7.83317 13.0689C7.67248 13.9213 7.94848 14.7455 8.55335 15.2199C9.07141 15.6262 9.79357 15.9726 11.0461 16.4153C12.0093 16.7558 11.9505 17.5771 11.9096 17.8206C11.8369 18.2529 11.5606 18.7087 11.0953 18.947V17.2893C11.0953 16.901 10.7806 16.5862 10.3922 16.5862C10.0038 16.5862 9.68904 16.901 9.68904 17.2893V19.0885C9.32557 19.0437 9.05998 18.9296 8.63857 18.6539C8.31382 18.4413 7.87798 18.5325 7.66526 18.8573C7.61471 18.9346 7.57987 19.021 7.56274 19.1117C7.54561 19.2025 7.54652 19.2957 7.56542 19.386C7.58432 19.4764 7.62084 19.5622 7.6729 19.6384C7.72495 19.7147 7.79151 19.7799 7.86879 19.8304Z" fill="white"/>
</g>
</g>
<defs>
<clipPath id="clip0_22_1364">
<rect width="48" height="48" fill="white"/>
</clipPath>
<clipPath id="clip1_22_1364">
<rect width="48" height="48" fill="white"/>
</clipPath>
</defs>
</svg>

<svg width="48" height="48" fill="none" xmlns="http://www.w3.org/2000/svg"><g clip-path="url(#a)"><g clip-path="url(#b)" fill="#fff"><path d="M14.965 5.156h7.482a.703.703 0 1 0 0-1.406h-7.482a.703.703 0 1 0 0 1.406Z"/><path d="M47.393 22.505V21.46a5.422 5.422 0 0 0-5.416-5.416h-5.172V6.42c0-3.54-2.88-6.42-6.42-6.42H7.027C3.487 0 .607 2.88.607 6.42v35.16c0 3.54 2.88 6.42 6.42 6.42h23.358c3.54 0 6.42-2.88 6.42-6.42v-.362h5.172a5.422 5.422 0 0 0 5.416-5.416V22.505Zm-1.406-1.045v.342h-29.95v-.342a4.014 4.014 0 0 1 4.01-4.01h21.93a4.014 4.014 0 0 1 4.01 4.01ZM35.399 41.58a5.02 5.02 0 0 1-5.014 5.014H7.027a4.98 4.98 0 0 1-3.546-1.469 4.981 4.981 0 0 1-1.468-3.545V6.42A4.98 4.98 0 0 1 3.48 2.875a4.98 4.98 0 0 1 3.546-1.469h23.358A5.02 5.02 0 0 1 35.4 6.42v9.624h-2.344v-8.33a3.968 3.968 0 0 0-3.963-3.964h-3.184a.703.703 0 0 0-.703.703v.154a2.671 2.671 0 0 1-2.668 2.668h-7.66a2.671 2.671 0 0 1-2.669-2.668v-.154a.703.703 0 0 0-.703-.703H8.32a3.968 3.968 0 0 0-3.963 3.964V9.19a.703.703 0 1 0 1.406 0V7.714A2.56 2.56 0 0 1 8.32 5.156h2.519a4.08 4.08 0 0 0 4.037 3.525h7.66a4.08 4.08 0 0 0 4.038-3.525h2.517a2.56 2.56 0 0 1 2.558 2.558v8.33H20.047a5.422 5.422 0 0 0-5.416 5.416v14.343a5.422 5.422 0 0 0 5.416 5.416h11.425a2.567 2.567 0 0 1-2.38 1.625H8.32a2.56 2.56 0 0 1-2.557-2.558V12.004a.703.703 0 1 0-1.406 0v28.282A3.968 3.968 0 0 0 8.32 44.25h20.772a3.977 3.977 0 0 0 3.851-3.032H35.4v.362Zm6.578-1.768h-21.93a4.014 4.014 0 0 1-4.01-4.01V27.46h22.336a.703.703 0 1 0 0-1.406H16.038v-2.846h29.949v2.846H41.18a.703.703 0 1 0 0 1.406h4.807v8.342a4.014 4.014 0 0 1-4.01 4.01Z"/><path d="M19.616 28.918h-1.695a.703.703 0 1 0 0 1.406h1.695a.703.703 0 1 0 0-1.406Zm3.824 0h-1.695a.703.703 0 1 0 0 1.406h1.695a.703.703 0 1 0 0-1.406Zm3.823 0h-1.695a.703.703 0 1 0 0 1.406h1.695a.703.703 0 0 0 0-1.406Zm3.824 0h-1.695a.703.703 0 1 0 0 1.406h1.695a.703.703 0 0 0 0-1.406ZM7.869 19.83c.711.466 1.21.623 1.82.672V21a.703.703 0 0 0 1.406 0v-.564c1.235-.3 2.027-1.348 2.201-2.382.225-1.34-.474-2.503-1.781-2.965-.764-.27-1.611-.597-2.094-.976-.187-.147-.268-.454-.206-.784.049-.257.198-.557.474-.735v.915a.703.703 0 0 0 1.406 0v-1.017c.279.095.45.23.484.258a.703.703 0 0 0 .9-1.08 3.138 3.138 0 0 0-1.384-.628v-.444a.703.703 0 1 0-1.406 0v.494c-.055.013-.11.028-.167.046-.866.26-1.514 1-1.689 1.93-.16.853.115 1.678.72 2.152.518.406 1.24.753 2.493 1.195.963.34.905 1.162.864 1.406a1.57 1.57 0 0 1-.815 1.126v-1.658a.703.703 0 1 0-1.406 0v1.8c-.363-.045-.629-.16-1.05-.435a.703.703 0 0 0-.77 1.176Z"/></g></g><defs><clipPath id="a"><path fill="#fff" d="M0 0h48v48H0z"/></clipPath><clipPath id="b"><path fill="#fff" d="M0 0h48v48H0z"/></clipPath></defs></svg>
